!!!!SEGMENT: pl-wtm--905_fitelberg-grzegorz--chanson-triste.krn
!!!cenid: 19xx:90
!!!COM: Fitelberg, Grzegorz
!!!COM-rismID: pe41023683
!!!CDT: 1879-1953
!!!CNT: Polish
!!!OTL: Chanson triste
!!!PDT:
!!!AGN: Secular
!!!YEC: Copyright 2022 Narodowy Instytut Fryderyka Chopina (https://polishscores.org)
!!!YEM: License CC-BY-4.0 (https://creativecommons.org/licenses/by/4.0)
!!!SMS-siglum: PL-Wtm
!!!SMS-shelfmark: 905
!!!SMS-variant:
!!!SMS-altvar:
!!!SMS-shelfwork: W
!!!NIFC-rismSourceID: 1001210966
!!!NIFC-rismChildID: 1001210966
!!!NIFC-islandoraID: pl-wtm:75827
!!!URL-pdf-islandora: https://repozytorium.nifc.pl/islandora/object/pl-wtm%3A75827/datastream/PDF/view
!!!URL-scan: https://polish.musicsources.pl/pl/lokalizacje/galeria/druki-muzyczne/19552/2 @EN{Scan on Polish Music Sources Website} @PL{Skany w portalu Dziedzictwo Muzyki Polskiej w otwartym dostępie}
!!!IIIF:
!!!ONB-nifc:
!!!AIN: 1 piano
!!!key: b
**kern	**fing	**kern	**fing	**dynam
*part1	*	*part1	*	*part1
*staff2	*	*staff1	*	*staff1/2
*group1	*	*group1	*	*
*ICklav	*	*ICklav	*	*
*Ipiano	*	*Ipiano	*	*
*I"Piano.	*	*I"Piano.	*	*
*I'	*	*I'	*	*
*clefF4	*	*clefG2	*	*
*k[f#c#]	*	*k[f#c#]	*	*
*b:	*	*b:	*	*
*M2/4	*	*M2/4	*	*
=1	=1	=1	=1	=1
*ped	*	*Xtuplet	*	*
!!LO:TX:a:B:t=Anda[n]te non troppo lento.
4BB/	.	12r	.	p
.	.	(12dd\L	1	.
.	.	12ee\J	.	.
4f# 4d 4F#\	.	12ff#\L	.	.
.	.	12ee\	.	.
*Xped	*	*	*	*
.	.	12dd\J)	.	.
=2	=2	=2	=2	=2
*ped	*	*	*	*
4AA#X/	.	(8.ff#\L	4	.
.	.	16cc#\Jk)	1	.
*Xped	*	*	*	*
4f# 4c# 4F#\	.	[4cc#\	2	.
=3	=3	=3	=3	=3
*ped	*	*	*	*
4AAn/	.	12cc#\L]	.	.
.	.	(12cc#\	2	.
.	.	12dd\J	.	.
4e 4c# 4E\	.	12ee\L	.	.
.	.	12dd\	.	.
*Xped	*	*	*	*
.	.	12cc#\J)	.	.
=4	=4	=4	=4	=4
!LO:TX:b:i:t=segue	!	!	!	!
4GG#X/	.	(8.ee\L	4	.
.	.	16b\Jk)	1	.
4e 4B 4E\	.	[4b\	2	.
!!LO:LB:g=original
=5	=5	=5	=5	=5
4GGn/	.	12b\L]	.	<
.	.	(12b\	2	.
.	.	12cc#\J	.	.
4d 4B 4E#X\	.	12dd\L	.	.
.	.	12cc#\	.	.
.	.	12b\J)	.	[[
=6	=6	=6	=6	=6
4FF#/	.	(8.dd/L	4	<
.	.	16f#/Jk)	1	.
4d 4B 4F#\	.	[4f#/	2	.
=7	=7	=7	=7	=7
4FF#/	.	12f#/L]	.	f
.	.	(8qa/	.	.
.	.	(12g/)	.	.
.	.	12f#/J	.	.
4c# 4A#X 4F#\	.	12e/L	1	.
.	.	12d/	3	.
.	.	12c#/J)	2	.
=8	=8	=8	=8	=8
4BB/	.	(8.f#/L	5	.
.	.	16B/Jk)	1	>
4d 4F#\	.	4B/	2	.
=9	=9	=9	=9	=9
*	*	*^	*	*
!	!	!	!LO:TX:a:i:t=dolce	!	!
4BB/	.	(2b/	12r	5	] pp
.	.	.	(>12d\L	.	.
.	.	.	12e\J	.	.
4B 4F#\	.	.	12f#\L	.	.
.	.	.	12e\	.	.
.	.	.	12d\J)	.	.
!!LO:LB:g=original
=10	=10	=10	=10	=10	=10
4FF#/	.	2a#X/)	(>8.f#\L	5	.
.	.	.	16c#\Jk)	1	.
4A#X 4F#\	.	.	[4c#\	2	.
=11	=11	=11	=11	=11	=11
4AA/	.	(2an/	(>12c#\L]	5	.
.	.	.	12c#\	.	.
.	.	.	12d\J	.	.
4A 4E\	.	.	12e\L	.	.
.	.	.	12d\	.	.
.	.	.	12c#\J)	.	.
=12	=12	=12	=12	=12	=12
4EE/	.	2g#X/)	(>8.e\L	5	.
.	.	.	16B\Jk)	4	.
4G#X 4E\	.	.	[4B\	2	.
=13	=13	=13	=13	=13	=13
4FFn/	.	[2gn/	(>12B\L]	5	.
.	.	.	12B\	.	.
.	.	.	12cn\J	.	.
4Gn 4D\	.	.	12d\L	.	.
.	.	.	12c\	.	.
.	.	.	12B\J)	.	.
=14	=14	=14	=14	=14	=14
4.E:: 4.Cn:: 4.EE::/	.	8.g::/L]	4.cn:: 4.G::\	.	<
.	.	(<16e/Jk	.	4	.
.	.	8.cnX/L	.	2	.
8r	.	.	8ryy	.	.
.	.	16B/Jk)	.	1	[[
!!LO:LB:g=original
=15	=15	=15	=15	=15	=15
*^	*	*	*	*	*
*Xtuplet	*	*below	*	*	*	*
12ryy	2C#X 2FF#\	2 5	12r	2A#X\	.	.
(<12E/L	.	1	(<12c#/L	.	3	pp
!!LO:TX:a:i:t=rit.-:dur=6e:ext=ud:problem:text with extention lines
12F#/J	.	2	12d/J	.	.	.
12G/L	.	1	12e/L	.	.	.
12F#/	.	.	12d/	.	.	.
12E/J)	.	.	12c#/J)	.	.	.
=16	=16	=16	=16	=16	=16	=16
*	*^	*	*	*	*	*
(<8.E/L	2BB\	4ryy	4	(<8.c#/L	(4A#X\	2 3	>
16D/Jk)	.	.	.	16B/Jk)	.	1	.
4D/	.	4D\	.	4B/	4B\)	2	]]
*v	*v	*v	*	*	*	*	*
*	*	*v	*v	*	*
=17	=17	=17	=17	=17
4BB/	.	12r	.	p
.	.	(12dd\L	1	.
.	.	12ee\J	.	.
4f# 4d 4F#\	.	12ff#\L	.	.
.	.	12ee\	.	.
.	.	12dd\J)	.	.
=18	=18	=18	=18	=18
4AA#X/	.	(8.ff#\L	4	.
.	.	16cc#\Jk)	1	.
4f# 4c# 4F#\	.	[4cc#\	2	.
=19	=19	=19	=19	=19
4AAn/	.	12cc#\L]	.	.
.	.	(12cc#\	2	.
.	.	12dd\J	.	.
4e 4c# 4E\	.	12ee\L	.	.
.	.	12dd\	.	.
.	.	12cc#\J)	.	.
!!LO:LB:g=original
=20	=20	=20	=20	=20
4GG#X/	.	(8.ee\L	.	.
.	.	16b\Jk)	1	.
4e 4B 4E\	.	[4b\	2	.
=21	=21	=21	=21	=21
4GGn/	.	12b\L]	.	<
.	.	(12b\	2	.
.	.	12cc#\J	.	.
4d 4B 4E#X\	.	12dd\L	.	.
.	.	12cc#\	.	.
.	.	12b\J)	.	[[
=22	=22	=22	=22	=22
4FF#/	.	(8.dd/L	4	<
.	.	16f#/Jk)	1	.
4d 4B 4F#\	.	[4f#/	2	.
=23	=23	=23	=23	=23
4FF#/	.	12f#/L]	.	f
.	.	(8qa/	.	.
.	.	(12g/)	.	.
.	.	12f#/J	.	.
4c# 4A#X 4F#\	.	12e/L	1	.
.	.	12d/	3	.
.	.	12c#/J)	.	.
=24	=24	=24	=24	=24
4C#/	.	(8.f#/L	5	>
.	.	16B/Jk)	1	.
4d 4F#\	.	4B/	2	]]
!!LO:PB:g=original
=25	=25	=25	=25	=25
*	*	*^	*	*
!	!	!LO:TX:a:i:t=dolce	!	!	!
4BB/	.	(2b/	12r	.	pp
.	.	.	(>12d\L	.	.
.	.	.	12e\J	.	.
4B 4F#\	.	.	12f#\L	.	.
.	.	.	12e\	.	.
.	.	.	12d\J)	.	.
=26	=26	=26	=26	=26	=26
4FF#/	.	2a#X/)	(>8.f#\L	5	.
.	.	.	16c#\Jk)	1	.
4A#X 4F#\	.	.	[4c#\	2	.
=27	=27	=27	=27	=27	=27
4AA/	.	(2an/	(>12c#\L]	5	.
.	.	.	12c#\	.	.
.	.	.	12d\J	.	.
4A 4E\	.	.	12e\L	.	.
.	.	.	12d\	.	.
.	.	.	12c#\J)	.	.
=28	=28	=28	=28	=28	=28
4EE/	.	2g#X/)	(>8.e\L	5	.
.	.	.	16B\Jk)	1	.
4G#X 4E\	.	.	[4B\	2	.
=29	=29	=29	=29	=29	=29
4FFn/	.	[2gn/	(>12B\L]	5	.
.	.	.	12B\	.	.
.	.	.	12cn\J	.	.
4Gn 4D\	.	.	12d\L	.	.
.	.	.	12c\	.	.
.	.	.	12B\J)	.	.
!!LO:LB:g=original
=30	=30	=30	=30	=30	=30
4.E:: 4.Cn:: 4.EE::/	.	8.g::/L]	4.cn:: 4.G::\	.	<
.	.	(<16e/Jk	.	4	.
.	.	8.cn/L	.	2	.
8r	.	.	8ryy	.	.
.	.	16B/Jk)	.	1	[[
=31	=31	=31	=31	=31	=31
*^	*	*	*	*	*
*	*	*	*	*	*below	*
12r	2C#X 2FF#\	.	12r	2A#X\	2	mf
*	*	*	*	*	*above	*
(<12E/L	.	.	(<12c#/L	.	3	pp
!!LO:TX:a:t=rit.-:dur=7e:ext=ud:problem:text with extention lines
12F#/J	.	.	12d/J	.	.	.
12G/L	.	.	12e/L	.	.	.
12F#/	.	.	12d/	.	.	.
12E/J)	.	.	12c#/J)	.	.	.
=32	=32	=32	=32	=32	=32	=32
(<8.E/L	2BB\	.	(<8.c#/L	4A#\	.	.
16D/Jk)	.	.	16B/Jk)	.	1	>
4D/	.	.	4B/	4B\	2	]]
=33	=33	=33	=33	=33	=33	=33
!!LO:TX:a:i:t=poco agitato
4ryy	2GG#X\	.	(2b/	12r	.	f
.	.	.	.	(>12d\L	.	.
.	.	.	.	12e\J	.	.
4B 4Fn 4D/	.	.	.	12fn\L	.	.
.	.	.	.	12e\	.	.
.	.	.	.	12d\J)	.	.
=34	=34	=34	=34	=34	=34	=34
4ryy	2AA\	.	2a/)	(>8.f#X\L	3 5	.
.	.	.	.	16d\Jk)	1	.
4A 4F#X 4D/	.	.	.	4d\	2	.
!!LO:LB:g=original
=35	=35	=35	=35	=35	=35	=35
4ryy	2BB\	.	(2g#X/	12r	5	.
.	.	.	.	(>12d\L	.	>
.	.	.	.	12e\J	.	.
4G#X 4Fn 4D/	.	.	.	12fn\L	.	.
.	.	.	.	12e\	.	.
.	.	.	.	12d\J)	.	]]
=36	=36	=36	=36	=36	=36	=36
4ryy	2Cn\	.	(2a-X/)	(>8.fn\L	.	pp
.	.	.	.	16cn\Jk)	1	.
4A-X 4Fn/	.	.	.	[4c\	2	.
*v	*v	*	*	*	*	*
=37	=37	=37	=37	=37	=37
*ped	*	*	*	*	*
4CCn/	.	2g/)	(>12c\L]	.	.
.	.	.	12B\	1	.
!!LO:TX:a:i:t=ritenuto molto
.	.	.	12cn\J	.	.
4B-X 4G 4Cn\	.	.	12d-X\L	.	.
*	*	*	*	*below	*
.	.	.	12dn\	1	.
*Xped	*	*	*	*	*
.	.	.	12e\J)	2	.
*	*	*v	*v	*	*
=38	=38	=38	=38	=38
*ped	*	*	*above	*
4FFn/	.	(8.g/L	4	>
.	.	16fn/Jk)	3	.
4A-X 4Cn\	.	[4f/	2	]]
*Xped	*	*	*	*
=39	=39	=39	=39	=39
!!LO:TX:a:i:t=poco animato
4GG#X/	.	12f/L]	.	f
.	.	(12e/	.	.
.	.	12f#X/J	.	.
4d 4B 4E\	.	12g#X/L	.	.
.	.	12a/	1	.
.	.	12b/J)	2	.
!!LO:LB:g=original
=40	=40	=40	=40	=40
4AA/	.	(12dd\L	4	.
.	.	12ccn\	.	.
.	.	12b\J)	.	.
4cn 4A 4E\	.	[4a/	.	.
=41	=41	=41	=41	=41
4BB#X/	.	12a/L]	.	pp
.	.	(12g#X/	2	.
.	.	12a#X/J	.	.
4f# 4d#X 4G#X\	.	12b#X\L	1	.
.	.	12cc#\	.	.
.	.	12dd#X\J)	.	.
=42	=42	=42	=42	=42
4C#/	.	(12ff#\L	5	.
.	.	12ee\	.	.
.	.	12dd#X\J)	.	.
4e 4c# 4G#X\	.	[4cc#\	.	.
=43	=43	=43	=43	=43
*^	*	*	*	*
*ped	*	*	*	*	*
4ryy	2E\	.	12cc#\L]	.	<
.	.	.	(12b#X\	1	.
.	.	.	12cc#\J	.	.
4g#X 4c#X 4G#X/	.	.	16dd#X\LL	.	.
.	.	.	16ee\	.	.
.	.	.	16ff#\	.	.
*Xped	*	*	*	*	*
.	.	.	16gg#X\JJ)	.	[[
=44	=44	=44	=44	=44	=44
*ped	*	*	*	*	*
4ryy	2D#X\	.	(12bb\L	5	f
.	.	.	12aa\	.	.
.	.	.	12gg#X\J	.	.
4f# 4c# 4A/	.	.	12ff#\L	.	.
.	.	.	12gg#\	.	.
*Xped	*	*	*	*	*
.	.	.	12aa\J)	.	.
*v	*v	*	*	*	*
!!LO:LB:g=original
=45	=45	=45	=45	=45
*	*	*^	*	*
4GG#X/	.	12gg#X/L	12ryy	5	>
.	.	12g#X/	6g#\	1	.
.	.	[12ee/J	.	4	.
!!LO:TX:a:i:t=rit.
4B#X 4G#X\	.	12ee/L]	[4f#\	.	.
.	.	(<12ee/	.	5	.
.	.	12dd#X/J)	.	4	]]
=46	=46	=46	=46	=46	=46
4C#/	.	2cc#/	(>12f#\L]	5	p >
.	.	.	12e\	1	.
.	.	.	12d#X\J)	2	.
*	*	*	*tuplet	*	*
*	*	*	*Xbrackettup	*	*
!	!	!	!LO:TUP:a:problem:klamra łukowa	!	!
4c# 4G#X\	.	.	6e\	1	.
.	.	.	[>12fn^>\	2	]]
*	*	*v	*v	*	*
=47	=47	=47	=47	=47
*	*	*Xtuplet	*	*
!!LO:TX:a:i:t=animato
4GG#X/	.	12f/L]	.	f
.	.	(12e/	.	.
.	.	12f#X/J	.	.
4d 4B 4E\	.	12g#X/L	.	.
.	.	12a/	4	.
.	.	12b/J)	.	.
=48	=48	=48	=48	=48
4AA/	.	(12dd\L	4	.
.	.	12ccn\	.	.
.	.	12b\J)	.	.
4cn 4A 4E\	.	[4a/	.	.
=49	=49	=49	=49	=49
4BB#X/	.	12a/L]	.	pp
.	.	(12g#X/	.	.
.	.	12a#X/J	.	.
4f# 4d#X 4G#X\	.	12b#X\L	1	.
.	.	12cc#\	.	.
.	.	12dd#X\J)	.	.
!!LO:PB:g=original
=50	=50	=50	=50	=50
4C#/	.	(12ff#\L	3	.
.	.	12ee\	.	.
.	.	12dd#X\J)	.	.
4e 4c# 4G#X\	.	[4cc#\	2	.
=51	=51	=51	=51	=51
*^	*	*	*	*
*	*ped	*	*	*	*
4ryy	2E\	.	12cc#\L]	.	<
.	.	.	(12b#X\	1	.
.	.	.	12cc#\J	.	.
4g#X 4c#X 4G#X/	.	.	16dd#X\LL	.	.
.	.	.	16ee\	.	.
.	.	.	16ff#\	.	.
.	.	.	16gg#X\JJ)	.	[
=52	=52	=52	=52	=52	=52
4ryy	2D#X\	.	(12bb\L	5	f
.	.	.	12aa\	.	.
.	.	.	12gg#X\J	.	.
4f# 4c# 4A/	.	.	12ff#\L	.	.
.	.	.	12gg#\	.	.
.	.	.	12aa\J)	.	.
*v	*v	*	*	*	*
=53	=53	=53	=53	=53
!	!	!LO:SIC:v:s=(12gg#\L	!	!
6GG#X/	.	(12gg\L	.	.
!!LO:TX:a:i:t=allargando
.	.	12g#X\	.	.
12e 12c# 12G#X\	.	12ee\J)	.	.
*ped	*	*	*	*
12EE/	.	12ddn\L	.	.
6e: 6d: 6B: 6E:\	.	(12bb: 12dd: 12g#;:\	.	.
*Xped	*	*	*	*
.	.	12dd\J)	.	.
!!LO:LB:g=original
=54	=54	=54	=54	=54
!!LO:TX:a:B:t=a tempo
4AA/	.	12r	.	p
.	.	(12ccn\L	.	.
.	.	12dd\J	.	.
4e 4cn 4E\	.	12ee\L	.	.
.	.	12dd\	.	.
.	.	12cc\J)	.	.
=55	=55	=55	=55	=55
4GG#X/	.	(8.ee\L	.	<
.	.	16b\Jk)	.	.
4e 4B 4E\	.	[4b\	.	[[
=56	=56	=56	=56	=56
*^	*	*	*	*
4ryy	2GGn/	.	12b\L]	.	f
.	.	.	(12b\	.	.
.	.	.	12cc#X\J	.	.
4d 4B 4E#X\	.	.	12dd\L	.	.
.	.	.	12cc#\	.	.
.	.	.	12b\J)	.	.
=57	=57	=57	=57	=57	=57
!	!	!	!LO:TX:t=P:problem:mixed beam	!	!
4r	4ryy	.	12dd\L	.	ff
!!LO:TX:a:i:t=allargando
.	.	.	12B^/	.	.
.	.	.	12c#^/J	.	.
*ped	*	*	*	*	*
!	!	!	!	!	!LO:DY:b=2:rj
4B 4E#X/	4GG 4GGG\	.	12d^/L	.	ff
.	.	.	12c#^/	.	.
*Xped	*	*	*	*	*
.	.	.	12B^/J	.	.
=58	=58	=58	=58	=58	=58
*ped	*	*	*	*	*
!!LO:TX:a:i:t=a tempo
!LO:TX:t=P:problem:mixed beam	!	!	!	!	!
!LO:N:n=2:vis=8	!	!	!	!	!
!LO:N:n=3:vis=8	!	!	!	!	!
(>8.d>L 8.B 8.F#/	2FF# 2FFF#\	.	12r	.	.
!	!	!	!	!	!LO:DY:rj
.	.	.	12dddL 12dd^\	.	ff
.	.	.	12eeeJ 12ee^\	.	.
!LO:TX:a:i:t=con anima	!	!	!	!	!
16B/Jk)	.	.	.	.	.
4B/	.	.	12fff#L 12ff#^\	.	.
.	.	.	12eee 12ee^\	.	.
*Xped	*	*	*	*	*
.	.	.	12dddJ 12dd^\	.	.
!!LO:LB:g=original
=59	=59	=59	=59	=59	=59
*ped	*	*	*	*	*
!	!	!	!	!	!LO:DY:t=sempre %s
12rA	2FF# 2FFF#\	.	(8.fff#L (8.ff#\	.	ff
12A#X^</L	.	.	.	.	.
12B^</J	.	.	.	.	.
.	.	.	16ccc#Jk 16cc#\))	.	.
12c#^</L	.	.	[4ccc# [4cc#\	.	.
12B^</	.	.	.	.	.
*Xped	*	*	*	*	*
12A#^</J	.	.	.	.	.
=60	=60	=60	=60	=60	=60
*ped	*	*	*	*	*
(<8.An/L	2FF#\	.	12ccc#]L 12cc#\]	.	.
.	.	.	12ccc# 12cc#^\	.	.
.	.	.	12dddJ 12dd^\	.	.
*	*	*above	*	*	*
16E/Jk)	.	2	.	.	.
4E/	.	1	12eeeL 12ee^\	.	.
.	.	.	12ddd 12dd^\	.	.
*Xped	*	*	*	*	*
.	.	.	12ccc#J 12cc#^\	.	.
=61	=61	=61	=61	=61	=61
*ped	*	*	*	*	*
12r	2FF# 2FFF#\	.	(8.eeeL 8.ee\	.	.
12G#^</L	.	3	.	.	.
12A^</J	.	.	.	.	.
.	.	.	16bbJk 16b\)	.	.
12B^</L	.	.	[4bb [4b\	.	.
12A^</	.	.	.	.	.
*Xped	*	*	*	*	*
12G#^</J	.	.	.	.	.
=62	=62	=62	=62	=62	=62
*ped	*	*	*	*	*
(<8.Gn/L	2FF#\	1	12bb]L 12b\]	.	.
.	.	.	12bb 12b^\	.	.
.	.	.	12ccc#J 12cc#^\	.	.
16D/Jk)	.	2	.	.	.
4D/	.	1	12dddL 12dd^\	.	.
.	.	.	12ccc# 12cc#^\	.	.
*Xped	*	*	*	*	*
.	.	.	12bbJ 12b^\	.	.
=63	=63	=63	=63	=63	=63
*ped	*	*	*	*	*
12r	2FF# 2FFF#\	.	(8.dddL (8.dd\	.	.
12D^</L	.	.	.	.	.
12E^</J	.	.	.	.	.
.	.	.	16ff#Jk 16f#\))	.	.
12F#^</L	.	.	[4ff# [4f#\	.	.
12E^</	.	.	.	.	>
*Xped	*	*	*	*	*
12D^</J	.	.	.	.	.
!!LO:LB:g=original
=64	=64	=64	=64	=64	=64
*ped	*	*	*	*	*
(<12C#^</L	2FF#\	.	12ff#]L 12f#\]	.	>
.	.	.	(8qaa/	.	.
12D^</	.	.	(12gg 12g\)	.	.
12E^</J	.	.	12ff#J 12f#\	.	.
12E#X^</L	.	.	12eeL 12e/	.	.
12F#^</	.	.	12dd 12d/	.	.
*Xped	*	*	*	*	*
[12G^</J)	.	.	12cc#J 12c#/)	.	]]
=65	=65	=65	=65	=65	=65
*ped	*	*	*	*	*
12G/L]	2BB\	.	((8.ff#L 8.f#/	.	p
(<12G#X/	.	.	.	.	.
12A/J	.	.	.	.	.
.	.	.	16bJk 16B/))	.	.
12A#X/L	.	.	4b 4B/	.	.
!!LO:TX:b:i:t=rit.
12B/	.	.	.	.	.
*Xped	*	*	*	*	*
12c#/J)	.	.	.	.	.
*v	*v	*	*	*	*
=66	=66	=66	=66	=66
*	*	*^	*	*
!	!	!LO:TX:a:i:t=dolce	!	!	!
4BB/	.	(2b/	12r	.	pp
.	.	.	(>12d\L	.	.
.	.	.	12e\J	.	.
4B 4F#\	.	.	12f#\L	.	.
.	.	.	12e\	.	.
.	.	.	12d\J)	.	.
=67	=67	=67	=67	=67	=67
4FF#/	.	2a#X/)	(<8.f#\L	.	.
.	.	.	16c#\Jk)	.	.
4A#X 4F#\	.	.	[4c#\	.	.
=68	=68	=68	=68	=68	=68
4AA/	.	2an/	(>12c#\L]	.	.
.	.	.	12c#\	.	.
.	.	.	12d\J	.	.
4A 4E\	.	.	12e\L	.	.
.	.	.	12d\	.	.
.	.	.	12c#\J)	.	.
=69	=69	=69	=69	=69	=69
4EE/	.	2g#X/	(>8.e\L	.	.
.	.	.	16B\Jk)	.	.
4G#X 4E\	.	.	[4B\	.	.
!!LO:LB:g=original
=70	=70	=70	=70	=70	=70
*^	*	*	*	*	*
!	!	!	!	!LO:TX:t=P:problem:brak zakończenia ligatury	!	!
4ryy	2FFn::\	.	[2gn::/	(>12B::\L]	.	.
.	.	.	.	12B\	.	.
.	.	.	.	12cn\J	.	.
!!LO:TX:a:i:t=rit.
4Gn 4D/	.	.	.	12d\L	.	.
.	.	.	.	12c\	.	.
.	.	.	.	12B\J)	.	.
*v	*v	*	*	*	*	*
=71	=71	=71	=71	=71	=71
4.E:: 4.Cn:: 4.EE::/	.	8.g::/L]	4.cn:: 4.G::\	.	>
.	.	(<16e/Jk	.	.	.
!	!	!LO:N:vis=8	!	!	!
.	.	8.cnX/L	.	.	.
8ryy	.	.	8ryy	.	.
.	.	16B/Jk)	.	.	]]
=72	=72	=72	=72	=72	=72
*^	*	*	*	*	*
12r	2C#X 2FF#\	.	12r	2A#X\	.	pp
!!LO:TX:a:i:t=rit.
(<12E/L	.	.	(<12c#/L	.	.	.
12F#/J	.	.	12d/J	.	.	.
12G/)	.	.	12e/)	.	.	.
!!LO:TX:a:i:t=più rall
!LO:TX:t=P:problem:mixed beam	!	!	!	!	!	!
(<8qqA#X/L	.	.	(<8qqg/L	.	.	ppp
8qqc#/	.	.	8qqa#X/	.	.	.
8qqe>\	.	.	8qqcc#/	.	.	.
8qqg>\	.	.	8qqee/	.	.	.
8qqa#X>\	.	.	8qqgg/	.	.	.
8qqcc#>\	.	.	8qqaa#X/	.	.	.
8qqee>\J)	.	.	8qqccc#/J)	.	.	.
!!LO:TX:a:B:t=Lento
(<12F#/L	.	.	(<12d/L	.	.	.
12E/J)	.	.	12c#/J)	.	.	.
*	*	*	*v	*v	*	*
=73	=73	=73	=73	=73	=73
*	*^	*	*	*	*
2A#X 2F#/	2FF# 2BBB\	(<4E/	.	(4.c#/	.	>
.	.	4D/)	.	.	.	.
.	.	.	.	8B/)	.	]]
*	*v	*v	*	*	*	*
=74	=74	=74	=74	=74	=74
2F# 2D/	2FF# 2BBB\;	.	2B;/	.	ppp
*v	*v	*	*	*	*
==	==	==	==	==
*-	*-	*-	*-	*-
!!!system-decoration: {(g1)}
!!!RDF**kern: i = editorial accidental
!!!RDF**kern: > = above
!!!RDF**kern: < = below
!!!RDF**kern: N = linked
!!!RDF**dynam: > = "dim.", fontstyle= "italic"
!!!ENC: Berenika Jozajtis
!!!EED: Katarzyna Serwa
!!!END: 2023-10-05
!!!EEV: 2023-10-12
